X:86
T:B086-  The country lass
S:(1st/2)
Q:1/4=120
L:1/4
M:C|
K:C
D3/2C/2c3/2c/2|dc/2B/2AG|A/2B/2cA/2B/2c|[1 A2c2:|[2 A2cB/2c/2|]\
d3/2G/2GB/2c/2|d3/2G/2GB/2c/2|d3/2G/2G3/2E/2|G2c2|\
B/2A/2 B/2A/2G3/2E/2|A3/2A/2c2|B/2A/2 B/2A/2G3/2E/2|\
D3/2C/2c2|]

